X:25
T:RVW2/2/25 Sweet Primeroses
C:Sung in the "Bell," April 1904
L:1/8
Q:1/4=80
M:3/4
I:linebreak $
K:G
"^(Editorial suggestion)  " D | GF G2 AB | cA F D2 D | GF G2 AB | cd A3 G |$ Ad cB AG | cA F D2 D | 
GF GB dc | B{AB}A G3 |] 



